X: 122008
T: MARKET CHORUS
P: Same figure.
%R: reel
B: James Kerr "Merry Melodies" v.1 p.22 s.0 #8
Z: 2017 John Chambers <jc:trillian.mit.edu>
M: 2/4
L: 1/16
K: D
A2 |\
A2f2 f2ef | e2d2 d2cd |\
c2B2 B2cd | f2e2 A4 |\
A2f2 f2ef | e2d2 d2cd |\
c2B2f2e2 | cdBc A2 :|
|: uA2 |\
vA4 defd | uA4 defd |\
agfg e2e2 | agfg e2e2 |\
vA4 defd | uA4 defd |\
agfg e2c2 | d2z2 d2 :|

%%sep 1 1 500
%%sep 1 1 500

